X:38
T:Jean's Recovery
R:jig
C:Paul S. Cranford
O:Cape Breton Island
S:http://www.cranfordpub.com
D:currently unrecorded
B:currently unpublished in book form
Z:psc, (re-formatted,updated 9/17/04)
N:
H:                                                        copyrights Cranford Publications, SOCAN
L:1/8
M:6/8
Q:300
K:C
A,|G,CC CDE|DGD CEG|cde geg|age dcA|
GEC CDE|DGD CEG|cde gea|gec c2:|
|:a|gc'e dcA|GEC DCA,|G,CC EGc|edc d2 a|
[1gc'e dcA|GEC DCA,|CG,G, A,CE|GEC C2:|
[2gec dcA|GEC DCA,|G,CC A,CE|GEC C2|]
